X: 1
T: the Primrose Lass
R: reel
O: trad Scotland
S: Barbara McOwen 10/15
S: APB John Campbell
Z: Nigel Gatherer
B: Dunlay's First Collection #59
Z: 2019 John Chambers <jc:trillian.mit.edu>
M: 4/4
L: 1/8
K: G
"A"[| g |\
"G"edBA G2GE | DEGA "D7"BAAg |\
"G"edBA G2GE | "D7"DEGA "G"BGGA |\
"G"BeAB G2GE |
"G"DEGA "D7"BAAg | "G"edBA "Em"G2GE |\
"D7"DEGA "G"BGG "B"|]| B |\
"G"d2gd edgd | "G"Bdgd "D7"BAAB |
"G"d2gd "C"efge | "D7"dBAc "G"BGGB |\
"G"d2gd edgd | "G"Bdgd "D7"BAAB |\
"G"dBde "Em"gbge | "D7"dBAc "G"BGG |]
